svgs/sharp-regular/road-lock.svg

<svg xmlns="http://www.w3.org/2000/svg" viewBox="0 0 640 512"><!--! Font Awesome Pro 6.6.0 by @fontawesome - https://fontawesome.com License - https://fontawesome.com/license (Commercial License) Copyright 2024 Fonticons, Inc. --><path d="M95.6 432L196.2 80 296 80l0 24 0 24 48 0 0-24 0-24 99.8 0 27.3 95.5c13.6-8.1 29.1-13.3 45.6-15L480 32 344 32l-48 0L160 32 45.7 432 32 480l49.9 0L384 480l0-48-40 0 0-24 0-24-48 0 0 24 0 24L95.6 432zM344 216l0-24-48 0 0 24 0 80 0 24 48 0 0-24 0-80zm184 24c17.7 0 32 14.3 32 32l0 48-64 0 0-48c0-17.7 14.3-32 32-32zm-80 32l0 48-32 0 0 192 224 0 0-192-32 0 0-48c0-44.2-35.8-80-80-80s-80 35.8-80 80z"/></svg>

<svg xmlns="http://www.w3.org/2000/svg" viewBox="0 0 640 512"><!--! Font Awesome Pro 6.4.2 by @fontawesome - https://fontawesome.com License - https://fontawesome.com/license (Commercial License) Copyright 2023 Fonticons, Inc. --><path d="M95.6 432L196.2 80H296v24 24h48V104 80h99.8l27.3 95.5c13.6-8.1 29.1-13.3 45.6-15L480 32H344 296 160L45.7 432 32 480H81.9 384l0-48H344V408 384H296v24 24H95.6zM344 216V192H296v24 80 24h48V296 216zm184 24c17.7 0 32 14.3 32 32v48H496V272c0-17.7 14.3-32 32-32zm-80 32v48H416V512H640V320H608V272c0-44.2-35.8-80-80-80s-80 35.8-80 80z"/></svg>
